X: 263
M: 2/4
L: 1/8
K: G
d |\
d2 BG | efgG | GA/B/ cB | A3 A |\
d2 gd | c2 ac | BdGB | A2 DB/c/ |\
d2 gd | c2 ac | BdGB | A2 Bc/d/ |\
e3 g | fdgc | BdDF | G3 :|

